assets/img/sale.svg

<svg width="55" height="55" viewBox="0 0 55 55" fill="none" xmlns="http://www.w3.org/2000/svg">
<path d="M42.7396 6.53124L44.1375 15.3771L52.1813 19.4792L48.125 27.5L52.2042 35.5208L44.0917 39.6229L42.6938 48.4687L33.7792 47.0708L27.4313 53.3958L21.0604 46.9792L12.2146 48.4458L10.7938 39.5312L2.79584 35.4521L6.875 27.4312L2.81875 19.4792L10.8625 15.3312L12.2604 6.55415L21.1292 8.02082L27.5 1.58124L33.8479 7.92915L42.7396 6.53124ZM21.7708 16.0417C20.8592 16.0417 19.9848 16.4038 19.3402 17.0485C18.6955 17.6931 18.3333 18.5675 18.3333 19.4792C18.3333 20.3908 18.6955 21.2652 19.3402 21.9098C19.9848 22.5545 20.8592 22.9167 21.7708 22.9167C22.6825 22.9167 23.5569 22.5545 24.2015 21.9098C24.8462 21.2652 25.2083 20.3908 25.2083 19.4792C25.2083 18.5675 24.8462 17.6931 24.2015 17.0485C23.5569 16.4038 22.6825 16.0417 21.7708 16.0417ZM33.2292 32.0833C32.3175 32.0833 31.4431 32.4455 30.7985 33.0901C30.1538 33.7348 29.7917 34.6091 29.7917 35.5208C29.7917 36.4325 30.1538 37.3068 30.7985 37.9515C31.4431 38.5962 32.3175 38.9583 33.2292 38.9583C34.1409 38.9583 35.0152 38.5962 35.6599 37.9515C36.3045 37.3068 36.6667 36.4325 36.6667 35.5208C36.6667 34.6091 36.3045 33.7348 35.6599 33.0901C35.0152 32.4455 34.1409 32.0833 33.2292 32.0833ZM19.2729 38.9583L38.9583 19.2729L35.7271 16.0417L16.0417 35.7271L19.2729 38.9583Z" fill="#0074E8"/>
</svg>

<svg width="55" height="55" fill="none" xmlns="http://www.w3.org/2000/svg"><path d="m42.74 6.531 1.398 8.846 8.043 4.102-4.056 8.021 4.08 8.02-8.113 4.103-1.398 8.846-8.915-1.398-6.348 6.325-6.37-6.417-8.846 1.467-1.421-8.915-7.998-4.079 4.079-8.02-4.056-7.953 8.044-4.148 1.397-8.777 8.87 1.467 6.37-6.44 6.348 6.348 8.892-1.398Zm-20.97 9.51a3.437 3.437 0 1 0 0 6.875 3.437 3.437 0 0 0 0-6.874Zm11.46 16.042a3.438 3.438 0 1 0 0 6.876 3.438 3.438 0 0 0 0-6.876Zm-13.957 6.875 19.685-19.685-3.23-3.231-19.686 19.685 3.23 3.231Z" fill="#0074E8"/></svg>
